X:1
T:Louvre, 77.77 D
T:Louvre, 77.77 D
T:Arranged by Aaron Coons, 1875
T:Public Domain Courtesy of the Cyber Hymnal™
C:Arranged by Aaron Coons, 1875
Z:Public Domain
Z:Courtesy of the Cyber Hymnal™
%%score ( 1 2 ) ( 3 4 )
L:1/8
Q:1/4=98
M:6/8
K:F
V:1 treble 
V:2 treble 
V:3 bass 
V:4 bass 
V:1
 [FA]2 [CG] [CF]2 [FA] | [Fc]2 [EB] [FA]3 | [Fd]2 [Fd] [Fd]2 [Fd] | [Fc]2 [FA] [EG]3 | %4
 [Fc]2 [FB] [FA]2 [Fc] | [Fd]2 [Be] !fermata![Af]2 z | [Bf]2 [Fd] [Fc]2 [FA] | [FA]2 [EG] F2 z | %8
 [Ac]2 [^G=B] [Ac]2 [_Bd] | [Ac]2 [FA] [Ac]3 | [GB]2 [FA] [EG]2 [FA] | [GB]2 [Ec] [FA]3 | %12
 [Ac]2 [^G=B] [Ac]2 [_Bd] | [Ac]2 [FA] !fermata![Ff]2 z | [Bf]2 [Fd] [Fc]2 [FA] | %15
 [FA]2 [CG] [CF]3 |] %16
V:2
 x6 | x6 | x6 | x6 | x6 | x6 | x6 | x3 F2 x | x6 | x6 | x6 | x6 | x6 | x6 | x6 | x6 |] %16
V:3
 [F,C]2 [F,B,] [F,A,]2 [F,C] | [C,B,]2 [C,C] [F,C]3 | [B,,B,]2 [B,,B,] [B,,B,]2 [D,B,] | %3
 [F,A,]2 [A,,C] [C,C]3 | [F,A,]2 [F,D] [F,C]2 [F,A,] | B,2 [G,^C] !fermata![D,D]2 z | %6
 [B,,D]2 [D,B,] [F,A,]2 [F,C] | [C,C]2 [C,B,] [F,A,]2 z | [F,F]2 [F,D] [F,F]2 [F,F] | %9
 [F,F]2 [F,C] [F,F]3 | [C,E]2 [C,C] [C,C]2 [C,C] | [C,C]2 [C,C] [F,C]3 | %12
 [F,F]2 [F,D] [F,F]2 [F,F] | [F,F]2 [F,C] [D,D]2 z | [B,,D]2 [D,B,] [F,A,]2 [F,C] | %15
 [C,C]2 [C,B,] [F,A,]3 |] %16
V:4
 x6 | x6 | x6 | x6 | x6 | B,2 x4 | x6 | x6 | x6 | x6 | x6 | x6 | x6 | x6 | x6 | x6 |] %16

